X:1
T:Hennessey's
N:IrTrad, 6/99
M:4/4
S:Charlie Harris, Willie Clancy Summer School 1998
R:hornpipe
%Q:140
L:1/8
K:G
   Bc \
| dBGB cAFA | GB (3AGF GABc | dgfg efge | dBGB A2 Bc |
| dBGB cAFA | GB (3AGF GABc | dgfg ecAF | GB (3AGF G2 :|
|: Bc \
| dgfg efge | dgfg edBc | dgfg bgeg | dBGB A2 Bc |
| dBGB cAFA | GB (3AGF GABc | dgfg ecAF | GB (3AGF G2 :|
